src/assets/images/toolbox/stackoverflow.svg

<svg
  width="28"
  height="32"
  viewBox="0 0 28 32"
  fill="transparent"
  xmlns="http://www.w3.org/2000/svg">
  <path
    fill="#BCBBBB"
    d="M23.6718 29.1547V20.582H26.6211V32H0V20.582H2.94942V29.1547H23.6718Z"
  />
  <path
    fill="#F48023"
    d="M6.20529 19.7691L20.6841 22.6882L21.2969 19.8799L6.81828 16.9607L6.20529 19.7691ZM8.12043 13.1178L21.5268 19.1409L22.7526 16.5543L9.34621 10.4943L8.12043 13.1178ZM11.8359 6.76214L23.2121 15.8892L25.089 13.709L13.7128 4.58198L11.8359 6.76214ZM19.1904 0L16.8153 1.69974L25.6252 13.1547L28 11.455L19.1904 0ZM5.89868 26.2725H20.684V23.4272H5.89879L5.89868 26.2725Z"
  />
</svg>

<svg xmlns="http://www.w3.org/2000/svg" width="28" height="32" fill="transparent" xmlns:v="https://vecta.io/nano">
  <path fill="#bcbbbb" d="M23.672 29.155v-8.573h2.949V32H0V20.582h2.949v8.573h20.722z" />
  <path fill="#f48023"
    d="M6.205 19.769l14.479 2.919.613-2.808-14.479-2.919-.613 2.808zm1.915-6.651l13.406 6.023 1.226-2.587-13.406-6.06-1.226 2.624zm3.715-6.356l11.376 9.127 1.877-2.18-11.376-9.127-1.877 2.18zM19.19 0l-2.375 1.7 8.81 11.455 2.375-1.7L19.19 0zM5.899 26.273h14.785v-2.845H5.899v2.845z" />
</svg>
